NotoEmoji/emoji_u1f3b9.svg

<svg enable-background="new 0 0 128 128" viewBox="0 0 128 128" xmlns="http://www.w3.org/2000/svg"><path d="m117.39 124h-106.78c-3.65 0-6.61-2.96-6.61-6.61v-101.39h120v101.39c0 3.65-2.96 6.61-6.61 6.61z" fill="#82aec0"/><g fill="#fff"><path d="m27.7 116.35h-14.83c-2.8 0-5.06-2.27-5.06-5.06v-85.8h24.95v85.8c0 2.8-2.27 5.06-5.06 5.06z"/><path d="m56.84 116.35h-14.82c-2.8 0-5.06-2.27-5.06-5.06v-85.8h24.94v85.8c0 2.8-2.26 5.06-5.06 5.06z"/><path d="m85.98 116.35h-14.82c-2.8 0-5.06-2.27-5.06-5.06v-85.8h24.95v85.8c-.01 2.8-2.27 5.06-5.07 5.06z"/><path d="m115.13 116.35h-14.83c-2.8 0-5.06-2.27-5.06-5.06v-85.8h24.95v85.8c0 2.8-2.27 5.06-5.06 5.06z"/></g><path d="m124 8.47c0-2.47-2-4.47-4.47-4.47h-111.06c-2.47 0-4.47 2-4.47 4.47v19.53h22.54v52.4c0 1.21 1.15 2.2 2.56 2.2h5.75 5.75c1.42 0 2.56-.98 2.56-2.2v-52.4h12.51v52.4c0 1.21 1.15 2.2 2.56 2.2h5.77 5.75c1.42 0 2.56-.98 2.56-2.2v-52.4h12.51v52.4c0 1.21 1.15 2.2 2.56 2.2h5.75 5.75c1.42 0 2.56-.98 2.56-2.2v-52.4h22.56z"/><path d="m4 4h120v6.65h-120z" fill="#757575"/><path d="m97.42 80.25h-8.55c-.84 0-1.52-.68-1.52-1.52v-7.21c0-.84.68-1.52 1.52-1.52h8.55c.84 0 1.52.68 1.52 1.52v7.21c-.01.84-.69 1.52-1.52 1.52z" fill="#757575"/><path d="m68.27 80.25h-8.55c-.84 0-1.52-.68-1.52-1.52v-7.21c0-.84.68-1.52 1.52-1.52h8.55c.84 0 1.52.68 1.52 1.52v7.21c0 .84-.68 1.52-1.52 1.52z" fill="#757575"/><path d="m39.13 80.25h-8.55c-.84 0-1.52-.68-1.52-1.52v-7.21c0-.84.68-1.52 1.52-1.52h8.55c.84 0 1.52.68 1.52 1.52v7.21c0 .84-.68 1.52-1.52 1.52z" fill="#757575"/></svg>

<?xml version="1.0" encoding="utf-8"?>
<!-- Generator: Adobe Illustrator 25.2.3, SVG Export Plug-In . SVG Version: 6.00 Build 0)  -->
<svg version="1.1" id="Layer_2" xmlns="http://www.w3.org/2000/svg" xmlns:xlink="http://www.w3.org/1999/xlink" x="0px" y="0px"
	 viewBox="0 0 128 128" style="enable-background:new 0 0 128 128;" xml:space="preserve">
<g>
	<path style="fill:#82AEC0;" d="M117.39,124H10.61C6.96,124,4,121.04,4,117.39V16h120v101.39C124,121.04,121.04,124,117.39,124z"/>
	<g>
		<path style="fill:#FFFFFF;" d="M27.7,116.35H12.87c-2.8,0-5.06-2.27-5.06-5.06v-85.8h24.95v85.8
			C32.76,114.09,30.49,116.35,27.7,116.35z"/>
	</g>
	<g>
		<path style="fill:#FFFFFF;" d="M56.84,116.35H42.02c-2.8,0-5.06-2.27-5.06-5.06v-85.8H61.9v85.8
			C61.9,114.09,59.64,116.35,56.84,116.35z"/>
	</g>
	<g>
		<path style="fill:#FFFFFF;" d="M85.98,116.35H71.16c-2.8,0-5.06-2.27-5.06-5.06v-85.8h24.95v85.8
			C91.04,114.09,88.78,116.35,85.98,116.35z"/>
	</g>
	<g>
		<path style="fill:#FFFFFF;" d="M115.13,116.35H100.3c-2.8,0-5.06-2.27-5.06-5.06v-85.8h24.95v85.8
			C120.19,114.09,117.92,116.35,115.13,116.35z"/>
	</g>
	<path d="M124,8.47C124,6,122,4,119.53,4H8.47C6,4,4,6,4,8.47V28h22.54v52.4c0,1.21,1.15,2.2,2.56,2.2h5.75h5.75
		c1.42,0,2.56-0.98,2.56-2.2V28h12.51v52.4c0,1.21,1.15,2.2,2.56,2.2H64h5.75c1.42,0,2.56-0.98,2.56-2.2V28h12.51v52.4
		c0,1.21,1.15,2.2,2.56,2.2h5.75h5.75c1.42,0,2.56-0.98,2.56-2.2V28H124V8.47z"/>
	<rect x="4" y="4" style="fill:#757575;" width="120" height="6.65"/>
	<path style="fill:#757575;" d="M97.42,80.25h-8.55c-0.84,0-1.52-0.68-1.52-1.52v-7.21c0-0.84,0.68-1.52,1.52-1.52h8.55
		c0.84,0,1.52,0.68,1.52,1.52v7.21C98.93,79.57,98.25,80.25,97.42,80.25z"/>
	<path style="fill:#757575;" d="M68.27,80.25h-8.55c-0.84,0-1.52-0.68-1.52-1.52v-7.21c0-0.84,0.68-1.52,1.52-1.52h8.55
		c0.84,0,1.52,0.68,1.52,1.52v7.21C69.79,79.57,69.11,80.25,68.27,80.25z"/>
	<path style="fill:#757575;" d="M39.13,80.25h-8.55c-0.84,0-1.52-0.68-1.52-1.52v-7.21c0-0.84,0.68-1.52,1.52-1.52h8.55
		c0.84,0,1.52,0.68,1.52,1.52v7.21C40.65,79.57,39.97,80.25,39.13,80.25z"/>
</g>
</svg>
